icons/evolvere-blue-folders-flat-vivid-dark-fallback/apps/64/wine.svg

<?xml version="1.0" encoding="UTF-8" standalone="no"?>
<!-- Created with Inkscape (http://www.inkscape.org/) -->

<svg
   xmlns:dc="http://purl.org/dc/elements/1.1/"
   xmlns:cc="http://creativecommons.org/ns#"
   xmlns:rdf="http://www.w3.org/1999/02/22-rdf-syntax-ns#"
   xmlns:svg="http://www.w3.org/2000/svg"
   xmlns="http://www.w3.org/2000/svg"
   xmlns:xlink="http://www.w3.org/1999/xlink"
   xmlns:sodipodi="http://sodipodi.sourceforge.net/DTD/sodipodi-0.dtd"
   xmlns:inkscape="http://www.inkscape.org/namespaces/inkscape"
   width="64"
   height="64"
   id="svg13094"
   version="1.1"
   inkscape:version="0.48.4 r9939"
   sodipodi:docname="wine.svg">
  <sodipodi:namedview
     id="base"
     pagecolor="#ffffff"
     bordercolor="#666666"
     borderopacity="1.0"
     inkscape:pageopacity="0"
     inkscape:pageshadow="2"
     inkscape:zoom="11.313709"
     inkscape:cx="34.378907"
     inkscape:cy="33.127167"
     inkscape:document-units="px"
     inkscape:current-layer="svg13094"
     showgrid="false"
     inkscape:snap-bbox="true"
     inkscape:bbox-paths="true"
     inkscape:bbox-nodes="true"
     inkscape:snap-bbox-edge-midpoints="true"
     inkscape:snap-bbox-midpoints="true"
     inkscape:object-paths="true"
     inkscape:snap-intersection-paths="true"
     inkscape:object-nodes="true"
     inkscape:snap-smooth-nodes="true"
     inkscape:snap-midpoints="true"
     inkscape:snap-object-midpoints="true"
     inkscape:snap-center="true"
     showguides="false"
     inkscape:guide-bbox="true"
     inkscape:window-width="1920"
     inkscape:window-height="1025"
     inkscape:window-x="-2"
     inkscape:window-y="32"
     inkscape:window-maximized="1"
     inkscape:snap-global="false"
     fit-margin-top="0"
     fit-margin-left="0"
     fit-margin-right="0"
     fit-margin-bottom="0"
     showborder="true"
     inkscape:showpageshadow="false"
     inkscape:snap-page="true">
    <inkscape:grid
       type="xygrid"
       id="grid3075"
       empspacing="5"
       visible="true"
       enabled="true"
       snapvisiblegridlinesonly="true"
       originx="1.6362304e-08px"
       originy="18px" />
    <sodipodi:guide
       orientation="0,1"
       position="-11,30"
       id="guide9148" />
    <sodipodi:guide
       orientation="1,0"
       position="32,70"
       id="guide9150" />
  </sodipodi:namedview>
  <defs
     id="defs13096">
    <linearGradient
       id="linearGradient3094-3">
      <stop
         offset="0"
         style="stop-color:#bdc4cf;stop-opacity:1;"
         id="stop3096-6" />
      <stop
         offset="1"
         style="stop-color:#a1a8ba;stop-opacity:1;"
         id="stop3104-3" />
    </linearGradient>
    <radialGradient
       r="32"
       fy="17.037395"
       fx="30.739782"
       cy="17.037395"
       cx="30.739782"
       gradientTransform="matrix(6.8856667e-8,1.5625001,-1.4375,6.3348129e-8,57.491254,-34.030912)"
       gradientUnits="userSpaceOnUse"
       id="radialGradient3053"
       xlink:href="#linearGradient3094-3"
       inkscape:collect="always" />
  </defs>
  <metadata
     id="metadata13099">
    <rdf:RDF>
      <cc:Work
         rdf:about="">
        <dc:format>image/svg+xml</dc:format>
        <dc:type
           rdf:resource="http://purl.org/dc/dcmitype/StillImage" />
        <dc:title />
      </cc:Work>
    </rdf:RDF>
  </metadata>
  <path
     id="path6538"
     d="m 0,4 0,30 0,28 2,2 30,0 30,0 2,-2 L 64,34 64,4 32,4 0,4 z"
     style="color:#000000;fill:#aeb4c3;fill-opacity:1;fill-rule:nonzero;stroke:none;stroke-width:2.28571415;marker:none;visibility:visible;display:inline;overflow:visible;enable-background:accumulate"
     inkscape:connector-curvature="0" />
  <path
     inkscape:connector-curvature="0"
     style="color:#000000;fill:#e7ecf0;fill-opacity:1;fill-rule:nonzero;stroke:none;marker:none;visibility:visible;display:inline;overflow:visible;enable-background:accumulate"
     d="M 2,0 0,1 0,4 19.5625,4 39.125,4 64,4 64,1 62,0 39.125,0 19.5625,0 2,0 z"
     id="path6688" />
  <g
     id="g3043"
     inkscape:export-filename="folder.png"
     inkscape:export-xdpi="90"
     inkscape:export-ydpi="90"
     transform="translate(-0.62500009,0.082283)" />
  <g
     id="scalable"
     transform="matrix(1.0385892,0,0,1.0385892,1214.7222,1878.8121)"
     inkscape:label="#g3701"
     style="fill:#ffffff" />
  <path
     style="fill:#f2f5f7;fill-opacity:1;fill-rule:nonzero;stroke-width:1;stroke-linecap:butt;stroke-linejoin:miter;stroke-miterlimit:4;stroke-opacity:1;stroke-dasharray:none;stroke-dashoffset:0"
     d="M 0,3 0,6 2,4 z"
     id="path4298"
     inkscape:connector-curvature="0"
     sodipodi:nodetypes="cccc" />
  <path
     inkscape:connector-curvature="0"
     style="fill:#ee719a;fill-opacity:1;stroke:none"
     d="m 41.28125,0 0,4 L 64,4 64,1 62,0 41.28125,0 z"
     id="path3814" />
  <path
     style="fill:#9f254d;fill-opacity:1;stroke:none;color:#000000;fill-rule:nonzero;marker:none;visibility:visible;display:inline;overflow:visible;enable-background:accumulate"
     d="M 41.28125 4 L 41.28125 4.125 C 46.696198 4.6377064 51.835555 7.5589878 55.0625 11.9375 C 58.289444 16.316012 59.550815 22.11349 58.4375 27.4375 C 57.324184 32.761507 53.898534 37.531414 49.1875 40.25 C 44.476467 42.968582 38.572912 43.575039 33.40625 41.875 C 28.858249 40.378527 25.032448 37.271166 21.34375 34.21875 C 17.655053 31.166335 13.872591 28.022242 9.34375 26.46875 C 6.3528655 25.442815 3.1255101 25.215255 0 25.6875 L 0 34 L 0 62 L 2 64 L 32 64 L 62 64 L 64 62 L 64 34 L 64 4 L 41.28125 4 z "
     id="path3011" />
  <path
     inkscape:connector-curvature="0"
     style="fill:#c2476f;fill-opacity:1;stroke:none;stroke-width:1;marker:none"
     id="path3028"
     d="M 64,6 62,4 64,3 z" />
</svg>

<svg xmlns="http://www.w3.org/2000/svg" viewBox="0 0 64 64"><g color="#000"><path d="m0 4v30 28l2 2h30 30l2-2v-28-30h-32-32" fill="#aeb4c3"/><path d="m2 0l-2 1v3h19.563 19.563 24.875v-3l-2-1h-22.875-19.563-17.563" fill="#e7ecf0"/></g><path d="m0 3v3l2-2z" fill="#f2f5f7"/><path d="m41.28 0v4h22.719v-3l-2-1h-20.719" fill="#ee719a"/><path d="m41.28 4v.125c5.415.513 10.554 3.434 13.781 7.813 3.227 4.379 4.488 10.176 3.375 15.5-1.113 5.324-4.539 10.09-9.25 12.813-4.711 2.719-10.615 3.325-15.781 1.625-4.548-1.496-8.374-4.604-12.06-7.656-3.689-3.052-7.471-6.197-12-7.75-2.991-1.026-6.218-1.253-9.344-.781v8.313 28l2 2h30 30l2-2v-28-30h-22.719" fill="#9f254d" color="#000"/><path d="m64 6l-2-2 2-1z" fill="#c2476f"/></svg>
